file/exxonmobil.svg

<svg clip-rule="evenodd" fill-rule="evenodd" stroke-linejoin="round" stroke-miterlimit="1.41421" viewBox="0 0 560 400" xmlns="http://www.w3.org/2000/svg"><path d="m97.91 9.12h6.911v2.361c.742-.646 3.138-2.94 7.563-2.94 5.207 0 9.344 3.844 9.344 9.88v15.668h-7.3v-13.726c0-3.365-1.641-5.361-4.611-5.361-2.877 0-4.608 1.882-4.608 5.361v13.726h-7.299zm69.532 12.484c0-7.203 5.768-13.063 13.322-13.063 7.552 0 13.318 5.86 13.318 13.063 0 7.201-5.767 13.054-13.318 13.054-7.554 0-13.322-5.853-13.322-13.054m7.206 0c0 3.449 2.577 6.287 6.159 6.287 3.588 0 6.169-2.838 6.169-6.287 0-3.451-2.581-6.287-6.169-6.287-3.581 0-6.159 2.836-6.159 6.287m-107.46.005c0-7.206 5.771-13.066 13.318-13.066 7.556 0 13.325 5.86 13.325 13.066 0 7.199-5.769 13.05-13.325 13.05-7.548.001-13.318-5.851-13.318-13.05m7.206-.002c0 3.451 2.577 6.289 6.163 6.289 3.588 0 6.165-2.838 6.165-6.289 0-3.454-2.577-6.287-6.165-6.287-3.586 0-6.163 2.833-6.163 6.287m155.099-15.253h7.399v-6.354h-7.399zm0 27.735h7.399v-24.969h-7.399zm13.105 0h7.402v-34.089h-7.402zm-37.22 0h-7.017v-34.089h7.097v11.102c.352-.259 2.651-2.561 7.674-2.561 6.57 0 12.053 5.642 12.053 13.068 0 7.412-5.84 13.054-12.137 13.054-4.79 0-7.074-2.104-7.59-2.496zm12.308-12.499c0-3.511-2.662-6.235-6.227-6.235-3.544 0-6.265 2.699-6.265 6.255 0 3.511 2.684 6.235 6.257 6.235 3.538-.001 6.235-2.734 6.235-6.255m-193.536 12.499h8.559l7.694-9.888 4.797 4.859-10.977 13.744h8.589l7.029-9.109 13.23 13.465h10.369l-19.015-19.121 14.975-18.919h-8.594l-11.067 14.21-4.789-4.814 12.311-15.504h-8.571l-8.408 10.818-4.566-4.71h-10.226l10.3 10.399zm-24.15-34.089v34.089h22.451v-6.361h-14.813v-8.145h14.148v-6.166h-14.148v-7.066h14.813v-6.351zm127.575 0v34.089h7.183v-25.739h.326l6.18 25.74h8.069l6.325-25.74h.327v25.74h7.182v-34.09h-11.729l-5.84 24.879h-.26l-5.695-24.879z" fill="#ed1b2d" fill-rule="nonzero" transform="matrix(1.9084 0 0 1.9084 41.4504 155)"/></svg>

<?xml version="1.0" encoding="UTF-8" standalone="no"?>
<!DOCTYPE svg PUBLIC "-//W3C//DTD SVG 1.1//EN" "http://www.w3.org/Graphics/SVG/1.1/DTD/svg11.dtd">
<svg width="100%" height="100%" viewBox="0 0 560 400" version="1.1" xmlns="http://www.w3.org/2000/svg" xmlns:xlink="http://www.w3.org/1999/xlink" xml:space="preserve" xmlns:serif="http://www.serif.com/" style="fill-rule:evenodd;clip-rule:evenodd;stroke-linejoin:round;stroke-miterlimit:1.41421;">
    <g transform="matrix(1.9084,0,0,1.9084,41.4504,155)">
        <path d="M97.91,9.12L104.821,9.12L104.821,11.481C105.563,10.835 107.959,8.541 112.384,8.541C117.591,8.541 121.728,12.385 121.728,18.421L121.728,34.089L114.428,34.089L114.428,20.363C114.428,16.998 112.787,15.002 109.817,15.002C106.94,15.002 105.209,16.884 105.209,20.363L105.209,34.089L97.91,34.089L97.91,9.12M167.442,21.604C167.442,14.401 173.21,8.541 180.764,8.541C188.316,8.541 194.082,14.401 194.082,21.604C194.082,28.805 188.315,34.658 180.764,34.658C173.21,34.658 167.442,28.805 167.442,21.604M174.648,21.604C174.648,25.053 177.225,27.891 180.807,27.891C184.395,27.891 186.976,25.053 186.976,21.604C186.976,18.153 184.395,15.317 180.807,15.317C177.226,15.317 174.648,18.153 174.648,21.604M67.188,21.609C67.188,14.403 72.959,8.543 80.506,8.543C88.062,8.543 93.831,14.403 93.831,21.609C93.831,28.808 88.062,34.659 80.506,34.659C72.958,34.66 67.188,28.808 67.188,21.609M74.394,21.607C74.394,25.058 76.971,27.896 80.557,27.896C84.145,27.896 86.722,25.058 86.722,21.607C86.722,18.153 84.145,15.32 80.557,15.32C76.971,15.32 74.394,18.153 74.394,21.607M229.493,6.354L236.892,6.354L236.892,0L229.493,0L229.493,6.354ZM229.493,34.089L236.892,34.089L236.892,9.12L229.493,9.12L229.493,34.089ZM242.598,34.089L250,34.089L250,0L242.598,0L242.598,34.089ZM205.378,34.089L198.361,34.089L198.361,0L205.458,0L205.458,11.102C205.81,10.843 208.109,8.541 213.132,8.541C219.702,8.541 225.185,14.183 225.185,21.609C225.185,29.021 219.345,34.663 213.048,34.663C208.258,34.663 205.974,32.559 205.458,32.167L205.378,34.089M217.686,21.59C217.686,18.079 215.024,15.355 211.459,15.355C207.915,15.355 205.194,18.054 205.194,21.61C205.194,25.121 207.878,27.845 211.451,27.845C214.989,27.844 217.686,25.111 217.686,21.59M24.15,34.089L32.709,34.089L40.403,24.201L45.2,29.06L34.223,42.804L42.812,42.804L49.841,33.695L63.071,47.16L73.44,47.16L54.425,28.039L69.4,9.12L60.806,9.12L49.739,23.33L44.95,18.516L57.261,3.012L48.69,3.012L40.282,13.83L35.716,9.12L25.49,9.12L35.79,19.519L24.15,34.089M0,0L0,34.089L22.451,34.089L22.451,27.728L7.638,27.728L7.638,19.583L21.786,19.583L21.786,13.417L7.638,13.417L7.638,6.351L22.451,6.351L22.451,0L0,0M127.575,0L127.575,34.089L134.758,34.089L134.758,8.35L135.084,8.35L141.264,34.09L149.333,34.09L155.658,8.35L155.985,8.35L155.985,34.09L163.167,34.09L163.167,0L151.438,0L145.598,24.879L145.338,24.879L139.643,0L127.575,0" style="fill:rgb(237,27,45);fill-rule:nonzero;"/>
    </g>
</svg>
